assets/svg/clear_all.svg

<!-- Generated by IcoMoon.io -->
<svg version="1.1" xmlns="http://www.w3.org/2000/svg" width="24" height="24" viewBox="0 0 24 24">
<title>clear_all</title>
<path d="M6.984 6.984h14.016v2.016h-14.016v-2.016zM3 17.016v-2.016h14.016v2.016h-14.016zM5.016 12.984v-1.969h13.969v1.969h-13.969z"></path>
</svg>

<svg xmlns="http://www.w3.org/2000/svg" viewBox="0 0 24 24"><path d="M6.984 6.984H21V9H6.984V6.984zM3 17.016V15h14.016v2.016H3zm2.016-4.032v-1.969h13.969v1.969H5.016z"/></svg>
